src/epub/images/titlepage.svg

<?xml version="1.0" encoding="utf-8"?>
<svg xmlns="http://www.w3.org/2000/svg" xmlns:svg="http://www.w3.org/2000/svg" version="1.1" viewBox="0 0 1400 340">
	<title>The titlepage for the Standard Ebooks edition of Kim, by Rudyard Kipling</title>
	<g>
		<path d="m 675.39693,130 -35.92983,-40.608188 31.06433,-36.584796 -21.33333,0 -26.47953,31.532164 0,-31.532164 -17.59065,0 0,77.192984 17.59065,0 0,-32.748539 L 651.16301,130 l 24.23392,0 z"/>
		<path d="m 701.36623,52.807016 -17.59065,0 0,77.192984 17.59065,0 0,-77.192984 z"/>
		<path d="m 781.46272,130 17.59064,0 -6.92398,-77.192984 -18.71345,0 -17.12281,44.538013 -17.1228,-44.538013 -18.71345,0 L 713.53289,130 l 17.59064,0 3.64913,-45.754387 0.46783,0 15.81287,45.286547 10.47953,0 15.81287,-45.286547 0.46783,0 L 781.46272,130 Z"/>
	</g>
	<g>
		<path d="m 333.88981,232.10526 0,57.89474 13.19298,0 0,-22.87719 L 364.767,290 l 16.77193,0 -19.92983,-23.92982 c 7.08772,-2.24562 11.85965,-8.07018 11.85965,-16.77193 0,-11.36842 -8.14035,-17.19299 -18.87719,-17.19299 l -20.70175,0 z m 13.19298,25.68421 0,-15.15789 1.54386,0 c 4.98245,0 10.94737,0.35088 10.94737,7.57895 0,7.22807 -5.96492,7.57894 -10.94737,7.57894 l -1.54386,0 z"/>
		<path d="m 433.68257,232.10526 -13.19299,0 0,33.47369 c 0,9.68421 -2.94736,12.49123 -9.4035,12.49123 -6.45615,0 -9.40351,-2.80702 -9.40351,-12.49123 l 0,-33.47369 -13.19299,0 0,37.33334 c 0,14.31579 7.85965,21.61403 22.5965,21.61403 14.73684,0 22.59649,-7.29824 22.59649,-21.61403 l 0,-37.33334 z"/>
		<path d="m 446.41173,232.10526 0,57.89474 16.77193,0 c 15.92983,0 29.19298,-12.07018 29.19298,-28.98246 0,-16.8421 -13.33333,-28.91228 -29.19298,-28.91228 l -16.77193,0 z m 13.19298,46.10527 0,-34.31579 2.03509,0 c 9.82456,0 16.49123,7.50877 16.49123,17.19298 -0.0702,9.68421 -6.73684,17.12281 -16.49123,17.12281 l -2.03509,0 z"/>
		<path d="m 490.60032,232.10526 21.33334,31.92983 0,25.96491 13.19298,0 0,-25.96491 21.33333,-31.92983 -15.85965,0 -12.07017,18.52632 -12.07018,-18.52632 -15.85965,0 z"/>
		<path d="m 576.68696,232.10526 -12.21053,0 L 541.10801,290 l 14.17544,0 4.2807,-11.57895 22.03509,0 4.2807,11.57895 14.17544,0 -23.36842,-57.89474 z m 0.42105,34.73685 -13.05263,0 6.45614,-16.84211 0.14035,0 6.45614,16.84211 z"/>
		<path d="m 607.24506,232.10526 0,57.89474 13.19298,0 0,-22.87719 17.68421,22.87719 16.77193,0 -19.92982,-23.92982 c 7.08772,-2.24562 11.85965,-8.07018 11.85965,-16.77193 0,-11.36842 -8.14035,-17.19299 -18.87719,-17.19299 l -20.70176,0 z m 13.19298,25.68421 0,-15.15789 1.54386,0 c 4.98246,0 10.94737,0.35088 10.94737,7.57895 0,7.22807 -5.96491,7.57894 -10.94737,7.57894 l -1.54386,0 z"/>
		<path d="m 662.54661,232.10526 0,57.89474 16.77192,0 c 15.92983,0 29.19299,-12.07018 29.19299,-28.98246 0,-16.8421 -13.33334,-28.91228 -29.19299,-28.91228 l -16.77192,0 z m 13.19298,46.10527 0,-34.31579 2.03509,0 c 9.82456,0 16.49122,7.50877 16.49122,17.19298 -0.0702,9.68421 -6.73684,17.12281 -16.49122,17.12281 l -2.03509,0 z"/>
		<path d="m 796.24616,290 -26.94737,-30.45614 23.29825,-27.4386 -16,0 -19.85965,23.64913 0,-23.64913 -13.19298,0 0,57.89474 13.19298,0 0,-24.5614 21.33333,24.5614 18.17544,0 z"/>
		<path d="m 816.97314,232.10526 -13.19298,0 0,57.89474 13.19298,0 0,-57.89474 z"/>
		<path d="m 830.43586,232.10526 0,57.89474 13.19298,0 0,-21.47368 7.92982,0 c 11.29825,0 19.78948,-6.66667 19.78948,-18.5965 0,-11.99999 -8.49123,-17.82456 -19.78948,-17.82456 l -21.1228,0 z M 843.62884,258 l 0,-15.36842 3.7193,0 c 5.19298,0 10.10526,1.75439 10.10526,7.7193 0,5.89473 -4.91228,7.64912 -10.10526,7.64912 l -3.7193,0 z"/>
		<path d="m 895.36678,232.10526 -13.19298,0 0,57.89474 33.12281,0 0,-11.57895 -19.92983,0 0,-46.31579 z"/>
		<path d="m 939.9775,232.10526 -13.19298,0 0,57.89474 13.19298,0 0,-57.89474 z"/>
		<path d="m 966.6332,254.07018 0.14035,0 L 989.7911,290 l 13.193,0 0,-57.89474 -13.193,0 0,35.92983 -0.14035,0 -23.01755,-35.92983 -13.19298,0 0,57.89474 13.19298,0 0,-35.92982 z"/>
		<path d="m 1068.7681,257.57895 -26.7369,0 0,10.17544 13.3334,0 c 0,7.08772 -6.2456,11.15789 -12.5614,11.15789 -8.1404,0 -14.7369,-8 -14.7369,-17.82456 0,-10.03509 6.5965,-18.10526 14.7369,-18.10526 5.1228,0 9.5438,2.03508 12.9123,7.43859 l 8.6315,-9.47368 c -5.0526,-6.10526 -12.1403,-9.89474 -22.3158,-9.89474 -16.2807,0 -28.2105,13.40351 -28.2105,30.03509 0,16.5614 12.6316,29.96491 28.2105,29.96491 11.3685,0 23.579,-6.24561 26.7369,-20.91228 l 0,-12.5614 z"/>
	</g>
</svg>

<?xml version="1.0" encoding="utf-8"?>
<svg xmlns="http://www.w3.org/2000/svg" xmlns:svg="http://www.w3.org/2000/svg" version="1.1" viewBox="0 0 1400 340">
	<title>The titlepage for the Standard Ebooks edition of Kim, by Rudyard Kipling</title>
	<g aria-label="KIM">
		<path d="M 675.39693,130 639.4671,89.391812 670.53143,52.807016 H 649.1981 L 622.71857,84.33918 V 52.807016 H 605.12792 V 130 h 17.59065 V 97.251461 L 651.16301,130 Z"/>
		<path d="M 701.36623,52.807016 H 683.77558 V 130 h 17.59065 z"/>
		<path d="m 781.46272,130 h 17.59064 L 792.12938,52.807016 H 773.41593 L 756.29312,97.345029 739.17032,52.807016 H 720.45687 L 713.53289,130 h 17.59064 l 3.64913,-45.754387 h 0.46783 l 15.81287,45.286547 h 10.47953 l 15.81287,-45.286547 h 0.46783 z"/>
	</g>
	<g aria-label="RUDYARD KIPLING">
		<path d="M 333.88981,232.10526 V 290 h 13.19298 V 267.12281 L 364.767,290 h 16.77193 L 361.6091,266.07018 c 7.08772,-2.24562 11.85965,-8.07018 11.85965,-16.77193 0,-11.36842 -8.14035,-17.19299 -18.87719,-17.19299 z m 13.19298,25.68421 v -15.15789 h 1.54386 c 4.98245,0 10.94737,0.35088 10.94737,7.57895 0,7.22807 -5.96492,7.57894 -10.94737,7.57894 z"/>
		<path d="m 433.68257,232.10526 h -13.19299 v 33.47369 c 0,9.68421 -2.94736,12.49123 -9.4035,12.49123 -6.45615,0 -9.40351,-2.80702 -9.40351,-12.49123 v -33.47369 h -13.19299 v 37.33334 c 0,14.31579 7.85965,21.61403 22.5965,21.61403 14.73684,0 22.59649,-7.29824 22.59649,-21.61403 z"/>
		<path d="M 446.41173,232.10526 V 290 h 16.77193 c 15.92983,0 29.19298,-12.07018 29.19298,-28.98246 0,-16.8421 -13.33333,-28.91228 -29.19298,-28.91228 z m 13.19298,46.10527 v -34.31579 h 2.03509 c 9.82456,0 16.49123,7.50877 16.49123,17.19298 -0.0702,9.68421 -6.73684,17.12281 -16.49123,17.12281 z"/>
		<path d="m 490.60032,232.10526 21.33334,31.92983 V 290 h 13.19298 v -25.96491 l 21.33333,-31.92983 h -15.85965 l -12.07017,18.52632 -12.07018,-18.52632 z"/>
		<path d="M 576.68696,232.10526 H 564.47643 L 541.10801,290 h 14.17544 l 4.2807,-11.57895 h 22.03509 L 585.87994,290 h 14.17544 z m 0.42105,34.73685 H 564.05538 L 570.51152,250 h 0.14035 z"/>
		<path d="M 607.24506,232.10526 V 290 h 13.19298 V 267.12281 L 638.12225,290 h 16.77193 l -19.92982,-23.92982 c 7.08772,-2.24562 11.85965,-8.07018 11.85965,-16.77193 0,-11.36842 -8.14035,-17.19299 -18.87719,-17.19299 z m 13.19298,25.68421 v -15.15789 h 1.54386 c 4.98246,0 10.94737,0.35088 10.94737,7.57895 0,7.22807 -5.96491,7.57894 -10.94737,7.57894 z"/>
		<path d="M 662.54661,232.10526 V 290 h 16.77192 c 15.92983,0 29.19299,-12.07018 29.19299,-28.98246 0,-16.8421 -13.33334,-28.91228 -29.19299,-28.91228 z m 13.19298,46.10527 v -34.31579 h 2.03509 c 9.82456,0 16.49122,7.50877 16.49122,17.19298 -0.0702,9.68421 -6.73684,17.12281 -16.49122,17.12281 z"/>
		<path d="m 796.24616,290 -26.94737,-30.45614 23.29825,-27.4386 h -16 l -19.85965,23.64913 V 232.10526 H 743.54441 V 290 h 13.19298 V 265.4386 L 778.07072,290 Z"/>
		<path d="M 816.97314,232.10526 H 803.78016 V 290 h 13.19298 z"/>
		<path d="M 830.43586,232.10526 V 290 h 13.19298 v -21.47368 h 7.92982 c 11.29825,0 19.78948,-6.66667 19.78948,-18.5965 0,-11.99999 -8.49123,-17.82456 -19.78948,-17.82456 z M 843.62884,258 v -15.36842 h 3.7193 c 5.19298,0 10.10526,1.75439 10.10526,7.7193 0,5.89473 -4.91228,7.64912 -10.10526,7.64912 z"/>
		<path d="M 895.36678,232.10526 H 882.1738 V 290 h 33.12281 v -11.57895 h -19.92983 z"/>
		<path d="M 939.9775,232.10526 H 926.78452 V 290 h 13.19298 z"/>
		<path d="m 966.6332,254.07018 h 0.14035 L 989.7911,290 h 13.193 v -57.89474 h -13.193 v 35.92983 h -0.14035 L 966.6332,232.10526 H 953.44022 V 290 h 13.19298 z"/>
		<path d="m 1068.7681,257.57895 h -26.7369 v 10.17544 h 13.3334 c 0,7.08772 -6.2456,11.15789 -12.5614,11.15789 -8.1404,0 -14.7369,-8 -14.7369,-17.82456 0,-10.03509 6.5965,-18.10526 14.7369,-18.10526 5.1228,0 9.5438,2.03508 12.9123,7.43859 l 8.6315,-9.47368 c -5.0526,-6.10526 -12.1403,-9.89474 -22.3158,-9.89474 -16.2807,0 -28.2105,13.40351 -28.2105,30.03509 0,16.5614 12.6316,29.96491 28.2105,29.96491 11.3685,0 23.579,-6.24561 26.7369,-20.91228 z"/>
	</g>
</svg>
